src/imagens/footer/iconeWhats.svg

<svg width="101" height="114" viewBox="0 0 101 114" fill="none" xmlns="http://www.w3.org/2000/svg">
<g filter="url(#filter0_i_112_802)">
<path d="M98.3319 26.605L51.5296 1.00599C50.5187 0.453067 49.2942 0.460295 48.2899 1.02511L2.41535 26.8247C1.36118 27.4175 0.709909 28.534 0.712736 29.7434L0.840184 84.271C0.843011 85.4804 1.49949 86.5938 2.55642 87.1817L48.551 112.767C49.558 113.327 50.7825 113.328 51.7908 112.771L98.473 86.953C99.5388 86.3636 100.199 85.2407 100.196 84.0227L100.069 29.5272C100.066 28.3093 99.4005 27.1894 98.3319 26.605Z" fill="#151515"/>
</g>
<path d="M74 56.9205C74 69.027 64.1105 78.841 51.909 78.841C48.0355 78.841 44.3965 77.851 41.2305 76.1135L29 80L32.9875 68.239C30.976 64.936 29.8175 61.062 29.8175 56.9205C29.8175 44.814 39.708 35 51.909 35C64.1115 35 74 44.814 74 56.9205ZM51.909 38.491C41.667 38.491 33.336 46.7585 33.336 56.9205C33.336 60.953 34.6505 64.6875 36.874 67.7255L34.5535 74.57L41.691 72.3015C44.6235 74.227 48.1365 75.35 51.9095 75.35C62.15 75.35 70.4825 67.0835 70.4825 56.9215C70.4825 46.7595 62.1505 38.491 51.909 38.491ZM63.0645 61.969C62.928 61.7455 62.5675 61.6105 62.0265 61.342C61.4845 61.0735 58.8215 59.773 58.3265 59.5945C57.83 59.4155 57.468 59.3255 57.1075 59.863C56.747 60.401 55.709 61.6105 55.3925 61.969C55.0765 62.3285 54.761 62.3735 54.219 62.1045C53.678 61.836 51.9335 61.268 49.865 59.438C48.2555 58.014 47.1685 56.256 46.8525 55.7175C46.537 55.18 46.8195 54.8895 47.09 54.622C47.334 54.381 47.632 53.9945 47.9025 53.681C48.174 53.367 48.264 53.1435 48.4435 52.7845C48.625 52.426 48.5345 52.1125 48.3985 51.843C48.2635 51.5745 47.1795 48.9305 46.7285 47.8545C46.2775 46.7795 45.827 46.9585 45.5105 46.9585C45.195 46.9585 44.8335 46.9135 44.4725 46.9135C44.1115 46.9135 43.5245 47.048 43.028 47.5855C42.532 48.1235 41.1335 49.4235 41.1335 52.067C41.1335 54.711 43.073 57.2655 43.3445 57.6235C43.615 57.9815 47.0895 63.5835 52.5945 65.735C58.1 67.8855 58.1 67.168 59.093 67.078C60.085 66.9885 62.296 65.7785 62.749 64.5245C63.199 63.2685 63.199 62.193 63.0645 61.969Z" fill="#00FFC2"/>
<defs>
<filter id="filter0_i_112_802" x="0.712769" y="0.596436" width="101.153" height="114.261" filterUnits="userSpaceOnUse" color-interpolation-filters="sRGB">
<feFlood flood-opacity="0" result="BackgroundImageFix"/>
<feBlend mode="normal" in="SourceGraphic" in2="BackgroundImageFix" result="shape"/>
<feColorMatrix in="SourceAlpha" type="matrix" values="0 0 0 0 0 0 0 0 0 0 0 0 0 0 0 0 0 0 127 0" result="hardAlpha"/>
<feOffset dx="1.66986" dy="1.66986"/>
<feGaussianBlur stdDeviation="2.50479"/>
<feComposite in2="hardAlpha" operator="arithmetic" k2="-1" k3="1"/>
<feColorMatrix type="matrix" values="0 0 0 0 0 0 0 0 0 0 0 0 0 0 0 0 0 0 0.25 0"/>
<feBlend mode="normal" in2="shape" result="effect1_innerShadow_112_802"/>
</filter>
</defs>
</svg>

<svg xmlns="http://www.w3.org/2000/svg" width="101" height="114" fill="none"><g filter="url(#a)"><path fill="#151515" d="M98.332 26.605 51.53 1.006a3.34 3.34 0 0 0-3.24.02L2.415 26.824a3.34 3.34 0 0 0-1.702 2.918L.84 84.271a3.34 3.34 0 0 0 1.716 2.91l45.995 25.586a3.342 3.342 0 0 0 3.24.004l46.682-25.818a3.339 3.339 0 0 0 1.723-2.93l-.127-54.496a3.34 3.34 0 0 0-1.737-2.922Z"/></g><path fill="#00FFC2" d="M74 56.92c0 12.107-9.89 21.921-22.091 21.921-3.873 0-7.512-.99-10.678-2.727L29 80l3.987-11.761a21.69 21.69 0 0 1-3.17-11.319C29.817 44.814 39.709 35 51.91 35 64.112 35 74 44.814 74 56.92ZM51.909 38.492c-10.242 0-18.573 8.267-18.573 18.43 0 4.032 1.315 7.767 3.538 10.804l-2.32 6.845 7.137-2.268a18.561 18.561 0 0 0 10.218 3.048c10.241 0 18.574-8.266 18.574-18.428S62.15 38.49 51.909 38.49Zm11.156 23.478c-.137-.224-.497-.358-1.038-.627-.543-.268-3.206-1.569-3.7-1.748-.497-.178-.859-.269-1.22.269-.36.538-1.398 1.748-1.715 2.106-.316.36-.631.404-1.173.136-.541-.269-2.285-.837-4.354-2.667-1.61-1.424-2.697-3.182-3.013-3.72-.315-.538-.032-.829.238-1.096.244-.241.542-.627.813-.941.271-.314.361-.537.54-.896.182-.359.092-.672-.044-.942-.136-.269-1.22-2.913-1.67-3.989-.451-1.075-.902-.895-1.218-.895-.316 0-.678-.046-1.039-.046-.36 0-.947.135-1.444.673-.496.538-1.895 1.837-1.895 4.481s1.94 5.199 2.211 5.556c.271.358 3.745 5.96 9.25 8.112 5.506 2.15 5.506 1.433 6.499 1.343.992-.09 3.203-1.3 3.656-2.553.45-1.257.45-2.332.316-2.556Z"/><defs><filter id="a" width="101.153" height="114.261" x=".713" y=".596" color-interpolation-filters="sRGB" filterUnits="userSpaceOnUse"><feFlood flood-opacity="0" result="BackgroundImageFix"/><feBlend in="SourceGraphic" in2="BackgroundImageFix" result="shape"/><feColorMatrix in="SourceAlpha" result="hardAlpha" values="0 0 0 0 0 0 0 0 0 0 0 0 0 0 0 0 0 0 127 0"/><feOffset dx="1.67" dy="1.67"/><feGaussianBlur stdDeviation="2.505"/><feComposite in2="hardAlpha" k2="-1" k3="1" operator="arithmetic"/><feColorMatrix values="0 0 0 0 0 0 0 0 0 0 0 0 0 0 0 0 0 0 0.25 0"/><feBlend in2="shape" result="effect1_innerShadow_112_802"/></filter></defs></svg>
